X:1
T:Oboe 11-12 solo
T:Oboe 11-12 solo
L:1/8
Q:1/4=75
M:2/4
K:F
V:1 treble nm="Oboe" snm="Ob."
V:1
"^\n"!f! F/G/A/B/ c/d/e/c/ | f/c/f- f/a/g/f/ | g/c/g- g/b/a/g/ | ag/f/ c'b/a/ | gc z2 | %5
!p! F/G/A/B/ c/d/e/c/ | f/c/f- f/a/g/f/ | g/c/g- g/b/a/g/ | ag/f/ c'b/a/ | .g.c z!mf! c' | %10
 c'/b/a/g/ f_e- | ed/c/ dd' | (d'/c'/)=b/c'/ d'f- | fe z/!f! c/d/e/ | f/c/A/c/ f/a/g/f/ | %15
 g/c/e/g/ c/b/a/g/ | a/c/F/c/ a/c'/b/a/ | b/g/e/g/ c/b/a/g/ |!>(! c'b/a/ (g/f/)e/d/!>)! | %19
!p! .e/(c/B/c/) .f/(c/B/c/) |"_cresc." .g/(c/B/c/) .a/(c/B/c/) | .b/.a/b- b/(c/B/c/) | %22
 a/g/f/g/ c/g/f/e/ |!f! fF z2 | F/G/A/B/ c/d/e/c/ | f/c/!>!f g/c/!>!g | a/c/!>!a =b/g/!>!b | %27
 c'=b/a/ g/f/e/d/ | e/g/c'/c/ (Td>c) | (c/c'/)=b/a/ g/f/e/d/ | c4 |] %31

